!!!!SEGMENT: T774_Mes-w22p364m1-9.krn
!!!COM: Messiaen, Olivier (Eugène Prosper Charles)
!!!OTL: Turangalîla, Symphony for Solo Piano, Ondes Martenot and Orchestra
!!!OMV: X: Final
!!!OMV: X: Final
!!!example: 774
!!!work: Mes-22
!!!AGN-sub: Concerto
!!!OPR: Turangalîla, Symphony for Solo Piano, Ondes Martenot and Orchestra
!!!filename: T774_Mes-w22p364m1-9.krn
**kern	**dynam	**kern	**dynam	**kern	**dynam	**kern	**dynam	**kern	**dynam	**kern	**dynam	**kern	**dynam	**kern	**dynam	**kern	**kern	**dynam	**kern	**dynam	**kern	**dynam	**kern	**dynam	**kern	**dynam	**kern	**dynam	**kern	**dynam	**kern	**dynam	**kern	**dynam	**kern	**dynam	**kern	**dynam	**kern	**dynam	**kern	**dynam	**kern	**dynam	**kern	**dynam	**kern	**dynam	**kern	**dynam
*grp:A	*	*grp:A	*	*grp:A	*	*grp:A	*	*grp:A	*	*grp:A	*	*grp:A	*	*grp:A	*	*grp:B	*grp:B	*	*grp:B	*	*grp:B	*	*grp:B	*	*grp:A	*	*grp:A	*	*grp:A	*	*grp:A	*	*grp:A	*	*grp:A	*	*grp:A	*	*grp:A	*	*grp:A	*	*grp:A	*	*grp:A	*	*grp:A	*	*grp:A	*
*part25	*	*part24	*	*part23	*	*part22	*	*part21	*	*part20	*	*part19	*	*part18	*	*part17	*part17	*	*part16	*	*part15	*	*part14	*	*part13	*	*part12	*	*part11	*	*part10	*	*part9	*	*part8	*	*part7	*	*part6	*	*part5	*	*part4	*	*part3	*	*part2	*	*part1	*
*staff26	*	*staff25	*	*staff24	*	*staff23	*	*staff22	*	*staff21	*	*staff20	*	*staff19	*	*staff18	*staff17	*	*staff16	*	*staff15	*	*staff14	*	*staff13	*	*staff12	*	*staff11	*	*staff10	*	*staff9	*	*staff8	*	*staff7	*	*staff6	*	*staff5	*	*staff4	*	*staff3	*	*staff2	*	*staff1	*
*ICstr	*	*ICstr	*	*ICstr	*	*ICstr	*	*ICstr	*	*ICstr	*	*ICstr	*	*ICstr	*IC	*ICklav	*ICklav	*	*ICidio	*	*ICidio	*	*ICidio	*	*ICbras	*	*ICbras	*	*ICbras	*	*ICbras	*	*ICbras	*	*ICbras	*	*ICbras	*	*ICww	*	*ICww	*	*ICww	*	*ICww	*	*ICww	*	*ICww	*
*Icello	*	*Icello	*	*Iviola	*	*Iviola	*	*Ivioln	*	*Ivioln	*	*Ivioln	*	*Ivioln	*	*Ipiano	*Ipiano	*	*Itbell	*	*Icrshc	*	*Iwblok&Ipiatt	*	*Itromt	*	*Icornt	*	*Itromp	*	*Itromp	*	*Itromp	*	*Icor	*	*Icor	*	*Ifagot	*	*Iclarb	*	*Iclars	*	*Icangl	*	*Ioboe	*	*Iflt	*
*I"Violoncello divisi	*	*I"Violoncello divisi	*	*I"Viola divisi	*	*I"Viola divisi	*	*I"Violin II divisi	*	*I"Violin II divisi	*	*I"Violin I divisi	*	*I"Violin I divisi	*	*I"Solo Piano	*I"Solo Piano	*	*I"Tubular Bells	*	*I"Crash Cymbal	*	*I"Wood Block,\nSmall Turkish Cymbal	*	*I"3 Trombones	*	*I"Cornet in Bb	*	*I"3 Trumpets in C	*	*I"3 Trumpets in C	*	*I"Piccolo Trumpet in D	*	*I"4 Horns in F	*	*I"4 Horns in F	*	*I"3 Bassoons	*	*I"Bass Clarinet in A	*	*I"2 Clarinets in A	*	*I"English Horn	*	*I"2 Oboes	*	*I"2 Flutes	*
*I'vc div	*	*I'vc div	*	*I'vla div	*	*I'vla div	*	*I'vn div	*	*I'vn div	*	*I'vn div	*	*I'vn div	*	*I'pf	*I'pf	*	*I'tub	*	*I'cymb	*	*I'block, cymb	*	*I'tn	*	*I'cnto	*	*I'tp	*	*I'tp	*	*I'picc-tp	*	*I'cor-fr	*	*I'cor-fr	*	*I'bn	*	*I'b-cl	*	*I'cl	*	*I'cor-en	*	*I'ob	*	*I'fl	*
*clefF4	*	*clefC4	*	*clefC3	*	*clefG2	*	*clefG2	*	*clefG2	*	*clefG2	*	*clefG2	*	*clefF4	*clefG2	*	*clefG2	*	*clefX	*	*clefX	*	*clefF4	*	*clefG2	*	*clefG2	*	*clefG2	*	*clefG2	*	*clefG2	*	*clefG2	*	*clefF4	*	*clefF4	*	*clefG2	*	*clefG2	*	*clefG2	*	*clefG2	*
*	*	*	*	*	*	*	*	*	*	*	*	*	*	*	*	*	*	*	*	*	*	*	*	*	*	*	*ITrd1c2	*	*	*	*	*	*ITrd-1c-2	*	*ITrd4c7	*	*ITrd4c7	*	*	*	*ITrd2c3	*	*ITrd2c3	*	*ITrd4c7	*	*	*	*	*
*k[f#c#g#d#a#e#]	*	*k[f#c#g#d#a#e#]	*	*k[f#c#g#d#a#e#]	*	*k[f#c#g#d#a#e#]	*	*k[f#c#g#d#a#e#]	*	*k[f#c#g#d#a#e#]	*	*k[f#c#g#d#a#e#]	*	*k[f#c#g#d#a#e#]	*	*k[f#c#g#d#a#e#]	*k[f#c#g#d#a#e#]	*	*k[]	*	*k[]	*	*k[]	*	*k[f#c#g#d#a#e#]	*	*k[b-e-]	*	*k[]	*	*k[]	*	*k[f#c#]	*	*k[b-]	*	*k[b-]	*	*k[f#c#g#d#a#e#]	*	*k[f#c#g#d#a#e#]	*	*k[f#c#g#d#a#e#]	*	*k[b-e-a-d-g-c-]	*	*k[f#c#g#d#a#e#]	*	*k[f#c#g#d#a#e#]	*
*F#:	*	*F#:	*	*F#:	*	*F#:	*	*F#:	*	*F#:	*	*F#:	*	*F#:	*	*F#:	*F#:	*	*	*	*C:	*	*C:	*	*F#:	*	*B-:	*	*	*	*	*	*D:	*	*F:	*	*	*	*F#:	*	*F#:	*	*F#:	*	*G-:	*	*F#:	*	*F#:	*
!!LO:TX:omd:tempo:a:t=Modéré, presque vif, avec une grande joie\n[eighth-dot]=116
*M3/16	*	*M3/16	*	*M3/16	*	*M3/16	*	*M3/16	*	*M3/16	*	*M3/16	*	*M3/16	*	*M3/16	*M3/16	*	*M3/16	*	*M3/16	*	*M3/16	*	*M3/16	*	*M3/16	*	*M3/16	*	*M3/16	*	*M3/16	*	*M3/16	*	*M3/16	*	*M3/16	*	*M3/16	*	*M3/16	*	*M3/16	*	*M3/16	*	*M3/16	*
=1	=1	=1	=1	=1	=1	=1	=1	=1	=1	=1	=1	=1	=1	=1	=1	=1	=1	=1	=1	=1	=1	=1	=1	=1	=1	=1	=1	=1	=1	=1	=1	=1	=1	=1	=1	=1	=1	=1	=1	=1	=1	=1	=1	=1	=1	=1	=1	=1	=1	=1
!	!	!	!	!	!	!	!	!	!	!	!	!	!	!	!	!	!	!	!	!	!	!	!LO:TX:b:t=Small Turkish Cymbal	!	!	!	!	!	!	!	!	!	!	!	!	!	!	!	!	!	!	!	!	!	!	!	!	!	!	!
!	!	!	!	!	!	!	!	!	!	!	!	!	!	!	!	!	!	!	!	!	!	!	!LO:TX:a:t=Wood Block	!	!	!	!	!	!	!	!LO:TX:a:t=1.2.	!	!	!	!	!	!	!	!	!	!	!	!	!	!	!	!	!	!LO:TX:a:B:t= Modéré, presque vif, aven une grande joie ([eighth-dot] = 116)	!
16%3r	.	16%3r	.	16a#~LL	ff	16cc#~LL	ff	16aa#~LL	ff	16ccc#~LL	ff	16aa#~LL	ff	16ccc#~LL	ff	16%3r	16%3r	.	16%3r	.	16%3r	.	[8.Rcc\ [8.Ree	f	16%3r	.	16%3r	.	16%3r	.	8a#X~L 8cc#X	ff	16%3r	.	16%3r	.	16%3r	.	16%3r	.	16%3r	.	8a#~L 8cc#	ff	8dd-~L	ff	8aa#~L 8ccc#	ff	8aa#~L 8ccc#	ff
.	.	.	.	16r	.	16r	.	16r	.	16r	.	16r	.	16r	.	.	.	.	.	.	.	.	.	.	.	.	.	.	.	.	.	.	.	.	.	.	.	.	.	.	.	.	.	.	.	.	.	.	.	.
.	.	.	.	16f#JJ	.	16a#JJ	.	16ff#JJ	.	16aa#JJ	.	16ff#JJ	.	16aa#JJ	.	.	.	.	.	.	.	.	.	.	.	.	.	.	.	.	16f#XJk 16a#X	.	.	.	.	.	.	.	.	.	.	.	16f#'Jk 16a#	.	16b-'Jk	.	16ff#'Jk 16aa#	.	16ff#'Jk 16aa#	.
=2	=2	=2	=2	=2	=2	=2	=2	=2	=2	=2	=2	=2	=2	=2	=2	=2	=2	=2	=2	=2	=2	=2	=2	=2	=2	=2	=2	=2	=2	=2	=2	=2	=2	=2	=2	=2	=2	=2	=2	=2	=2	=2	=2	=2	=2	=2	=2	=2	=2	=2
16%3r	.	16%3r	.	16a#LL	.	16cc#LL	.	16aa#LL	.	16ccc#LL	.	16aa#LL	.	16ccc#LL	.	16%3r	16%3r	.	16%3r	.	16%3r	.	16Rcc\KL] 16Ree]	.	16%3r	.	16%3r	.	16%3r	.	8a#X~L 8cc#X	.	8r	.	16%3r	.	16%3r	.	16%3r	.	16%3r	.	8a#~L 8cc#	.	8dd-~L	.	8aa#~L 8ccc#	.	8aa#~L 8ccc#	.
.	.	.	.	16r	.	16r	.	16r	.	16r	.	16r	.	16r	.	.	.	.	.	.	.	.	[8Rcc\J [8Ree	.	.	.	.	.	.	.	.	.	.	.	.	.	.	.	.	.	.	.	.	.	.	.	.	.	.	.
.	.	.	.	16f#JJ	.	16a#JJ	.	16ff#JJ	.	16aa#JJ	.	16ff#JJ	.	16aa#JJ	.	.	.	.	.	.	.	.	.	.	.	.	.	.	.	.	16f#XJk 16a#X	.	16a#X	ff	.	.	.	.	.	.	.	.	16f#'Jk 16a#	.	16b-'Jk	.	16ff#'Jk 16aa#	.	16ff#'Jk 16aa#	.
=3	=3	=3	=3	=3	=3	=3	=3	=3	=3	=3	=3	=3	=3	=3	=3	=3	=3	=3	=3	=3	=3	=3	=3	=3	=3	=3	=3	=3	=3	=3	=3	=3	=3	=3	=3	=3	=3	=3	=3	=3	=3	=3	=3	=3	=3	=3	=3	=3	=3	=3
16%3r	.	16%3r	.	(16cc#^LL	.	(16ff#^LL	.	(16ccc#^LL	.	(16fff#^LL	.	(16ccc#^LL	.	(16fff#^LL	.	16%3r	16%3r	.	16%3r	.	16%3r	.	8Rcc\L] 8Ree]	.	16%3r	.	16%3r	.	16%3r	.	16cc#X^KL 16ff#X	.	16ff#^KL	.	16%3r	.	16%3r	.	16%3r	.	16%3r	.	(16cc#^KL 16ff#	.	(16gg-^KL	.	(16cc#^KL 16ff#	.	(16ccc#^KL 16fff#	.
.	.	.	.	16a#JJ)	.	16cc#JJ)	.	16aa#JJ)	.	16ccc#JJ)	.	16aa#JJ)	.	16ccc#JJ)	.	.	.	.	.	.	.	.	.	.	.	.	.	.	.	.	8a#XJ 8cc#X	.	8cc#J	.	.	.	.	.	.	.	.	.	8a#J 8cc#)	.	8dd-J)	.	8aa#J 8ccc#)	.	8aa#J 8ccc#)	.
.	.	.	.	16r	.	16r	.	16r	.	16r	.	16r	.	16r	.	.	.	.	.	.	.	.	[16Rcc\Jk [16Ree	.	.	.	.	.	.	.	.	.	.	.	.	.	.	.	.	.	.	.	.	.	.	.	.	.	.	.
=4	=4	=4	=4	=4	=4	=4	=4	=4	=4	=4	=4	=4	=4	=4	=4	=4	=4	=4	=4	=4	=4	=4	=4	=4	=4	=4	=4	=4	=4	=4	=4	=4	=4	=4	=4	=4	=4	=4	=4	=4	=4	=4	=4	=4	=4	=4	=4	=4	=4	=4
16%3r	.	16%3r	.	(16f#^LL	.	(16a#^LL	.	(16ff#^LL	.	(16aa#^LL	.	(16ff#^LL	.	(16aa#^LL	.	16%3r	16%3r	.	16%3r	.	16%3r	.	8.Rcc\] 8.Ree]	.	16%3r	.	16%3r	.	16%3r	.	16f#X^KL 16a#X	.	16a#X^KL	.	16%3r	.	16%3r	.	16%3r	.	16%3r	.	(16ff#^KL 16aa#	.	(16b-^KL	.	(16ff#^KL 16aa#	.	(16ff#^KL 16aa#	.
.	.	.	.	16enJJ)	.	16anJJ)	.	16eenJJ)	.	16aanJJ)	.	16eenJJ)	.	16aanJJ)	.	.	.	.	.	.	.	.	.	.	.	.	.	.	.	.	[8enJ [8an	.	[8aJ	.	.	.	.	.	.	.	.	.	[8eeJ [8aa	.	[8aJ	.	[8eenJ [8aan	.	[8eenJ [8aan	.
.	.	.	.	16r	.	16r	.	16r	.	16r	.	16r	.	16r	.	.	.	.	.	.	.	.	.	.	.	.	.	.	.	.	.	.	.	.	.	.	.	.	.	.	.	.	.	.	.	.	.	.	.	.
=5	=5	=5	=5	=5	=5	=5	=5	=5	=5	=5	=5	=5	=5	=5	=5	=5	=5	=5	=5	=5	=5	=5	=5	=5	=5	=5	=5	=5	=5	=5	=5	=5	=5	=5	=5	=5	=5	=5	=5	=5	=5	=5	=5	=5	=5	=5	=5	=5	=5	=5
!	!	!	!	!	!	!	!	!	!	!	!	!	!	!	!	!	!	!	!	!	!	!	!	!	!	!	!	!	!LO:TX:a:t=3.	!	!	!	!	!	!	!	!	!	!	!	!	!	!	!	!	!	!	!	!	!
16%3r	.	16%3r	.	16r	.	16r	.	16r	.	16r	.	16r	.	16r	.	16%3r	16%3r	.	16%3r	.	16%3r	.	8Rcc\L 8Ree	.	16%3r	.	16r	.	16r	.	16e] 16a]	.	16a]	.	16r	.	16r	.	16%3r	.	16%3r	.	16eenXLL] 16aanX])	.	16anXLL])	.	16eenXLL] 16aanX])	.	16eenXLL] 16aanX])	.
!	!	!	!	!	!	!	!	!	!	!	!	!	!	!	!	!	!	!	!	!	!	!	!	!	!	!	!	!	!	!	!	!	!	!	!	!	!	!	!	!	!	!	!	!	!	!	!	!	!LO:TX:a:t=à2	!
.	.	.	.	16c#LL	.	16f#LL	.	16cc#LL	.	16ff#LL	.	16cc#LL	.	16ff#LL	.	.	.	.	.	.	.	.	.	.	.	.	16g-XLL	ff	16c#XLL	ff	16r	.	16r	.	16d-XLL 16g-X	ff	16d-XLL 16g-X	ff	.	.	.	.	16cc# 16ff#	.	16f#X	.	16cc# 16ff#	.	16ff#	.
.	.	.	.	16d#JJ	.	16gnJJ	.	16dd#JJ	.	16ggnJJ	.	16dd#JJ	.	16ggnJJ	.	.	.	.	.	.	.	.	[16Rcc\Jk [16Ree	.	.	.	16gJJ	.	16d#XJJ	.	16r	.	16r	.	16e-XJJ 16g	.	16e-XJJ 16g	.	.	.	.	.	16dd#XJJ 16ggX	.	16gJJ	.	16dd#XJJ 16ggn	.	16ggnJJ	.
=6	=6	=6	=6	=6	=6	=6	=6	=6	=6	=6	=6	=6	=6	=6	=6	=6	=6	=6	=6	=6	=6	=6	=6	=6	=6	=6	=6	=6	=6	=6	=6	=6	=6	=6	=6	=6	=6	=6	=6	=6	=6	=6	=6	=6	=6	=6	=6	=6	=6	=6
!	!	!	!	!	!	!	!	!	!	!	!	!	!	!	!	!	!	!	!	!	!	!	!	!	!	!	!	!	!	!	!	!	!	!	!	!	!	!	!LO:TX:b:t=3.	!	!	!	!	!	!	!	!	!	!	!
!	!	!	!	!	!	!	!	!	!	!	!	!	!	!	!	!	!	!	!	!	!	!	!	!	!	!	!	!	!	!	!	!	!	!	!	!	!	!	!LO:TX:a:t=1. et 2.	!	!	!	!	!	!	!	!	!	!	!
16%3r	.	16%3r	.	16f#LL	.	16b-XLL	.	16ff#LL	.	16bb-XLL	.	16ff#LL	.	16bb-XLL	.	16%3r	16%3r	.	16%3r	.	16%3r	.	8Rcc\L] 8Ree]	.	16%3r	.	16b-LL	.	16f#XLL	.	16%3r	.	16%3r	.	16g-XLL 16b-	.	16g-XLL 16b-	.	16%3r	.	16%3r	.	16ff#LL 16aa#X	.	16f#XLL	.	16ff#XLL 16bb-X	.	16bb-XLL	.
.	.	.	.	16en	.	16an	.	16een	.	16aan	.	16een	.	16aan	.	.	.	.	.	.	.	.	.	.	.	.	16an	.	16en	.	.	.	.	.	16en 16an	.	16en 16an	.	.	.	.	.	16ee 16aa	.	16e	.	16een 16aan	.	16aan	.
.	.	.	.	16gnJJ	.	16ccnJJ	.	16ggnJJ	.	16cccnJJ	.	16ggnJJ	.	16cccnJJ	.	.	.	.	.	.	.	.	[16Rcc\Jk [16Ree	.	.	.	16ccnJJ	.	16gnJJ	.	.	.	.	.	16gJJ 16ccn	.	16gJJ 16ccn	.	.	.	.	.	16ggXJJ 16cccX	.	16gJJ	.	16ggnJJ 16cccn	.	16cccnJJ	.
=7	=7	=7	=7	=7	=7	=7	=7	=7	=7	=7	=7	=7	=7	=7	=7	=7	=7	=7	=7	=7	=7	=7	=7	=7	=7	=7	=7	=7	=7	=7	=7	=7	=7	=7	=7	=7	=7	=7	=7	=7	=7	=7	=7	=7	=7	=7	=7	=7	=7	=7
!	!	!	!	!	!	!	!	!	!	!	!	!	!	!	!	!	!	!	!	!	!	!	!	!	!LO:TX:a:t=1.	!	!	!	!	!	!	!	!	!	!	!	!	!	!	!	!	!	!	!	!	!	!	!	!	!
16c#LL	ff	16f#LL	ff	16c#	.	16f#	.	16cc#LL	.	16ff#LL	.	16cc#LL	.	16ff#LL	.	16%3r	16%3r	.	16%3r	.	16%3r	.	16Rcc\KL] 16Ree]	.	16c#LL	ff	16g-XLL	.	16c#X	.	16%3r	.	16%3r	.	16d-XLL 16g-X	.	16d-XLL 16g-X	.	16c#LL 16f#	ff	16c#LL	ff	16cc#XLL 16ff#	.	16d-XLL	.	16cc#XLL 16ff#X	.	16ff#	.
16B#X	.	16gn	.	16r	.	16r	.	16b#X	.	16ggn	.	16b#X	.	16ggn	.	.	.	.	.	.	.	.	8Rcc\J 8Ree	.	16B#X	.	16g	.	16r	.	.	.	.	.	16cn 16g	.	16cn 16g	.	16B#X 16gn	.	16B#X	.	16b#X 16ggX	.	16c	.	16b#X 16ggn	.	16r	.
16A#JJ	.	16c#JJ	.	16r	.	16r	.	16a#JJ	.	16cc#XJJ	.	16a#JJ	.	16cc#XJJ	.	.	.	.	.	.	.	.	.	.	16A#JJ	.	16d-XJJ	.	16r	.	.	.	.	.	16B-JJ 16d-X	.	16B-JJ 16d-X	.	16A#JJ 16c#	.	16A#JJ	.	16a#XJJ 16cc#X	.	16B-JJ	.	16a#JJ 16cc#	.	16r	.
=8	=8	=8	=8	=8	=8	=8	=8	=8	=8	=8	=8	=8	=8	=8	=8	=8	=8	=8	=8	=8	=8	=8	=8	=8	=8	=8	=8	=8	=8	=8	=8	=8	=8	=8	=8	=8	=8	=8	=8	=8	=8	=8	=8	=8	=8	=8	=8	=8	=8	=8
!	!	!	!	!	!	!	!	!	!	!	!	!	!	!	!	!	!	!	!LO:TX:a:t=(hauteur réelle)	!	!	!	!	!	!	!	!	!	!	!	!	!	!	!	!	!	!	!	!	!	!	!	!	!	!	!	!	!	!	!
16F#LL	.	16A#LL	.	16%3r	.	16%3r	.	16f#LL	.	16a#LL	.	16f#LL	.	16a#LL	.	16%3ryy	16r<	.	8r	.	8r	.	8Rcc\L 8Ree	.	16F#	.	16B-	.	8r	.	8r	.	16%3r	.	16G-X'LL 16B-	.	16G-X'LL 16B-	.	16F#'LL 16A#	.	16F#'LL	.	16f#'LL 16a#	.	16G-X'LL	.	16f#'LL 16a#	.	16%3r	.
*	*	*	*	*	*	*	*	*	*	*	*	*	*	*	*	*ped	*	*	*	*	*	*	*	*	*	*	*	*	*	*	*	*	*	*	*	*	*	*	*	*	*	*	*	*	*	*	*	*	*	*
16r	.	16r	.	.	.	.	.	16r	.	16r	.	16r	.	16r	.	.	16F#<^LL 16A#<	ff	.	.	.	.	.	.	16r	.	16r	.	.	.	.	.	.	.	16G-' 16B-	.	16G-' 16B-	.	16F#' 16A#	.	16F#'	.	16f#' 16a#	.	16G-'	.	16f#' 16a#	.	.	.
!	!	!	!	!	!	!	!	!	!	!	!	!	!	!	!	!	!	!	!	!	!	!	!	!	!LO:TX:a:t=1.2.	!	!	!	!	!	!	!	!	!	!	!	!	!	!	!	!	!	!	!	!	!	!	!	!	!
16F#^uJJ	sf	16A#^uJJ	sf	.	.	.	.	16f#^uJJ	sf	16a#^uJJ	sf	16f#^uJJ	sf	16a#^uJJ	sf	.	[16f#^JJ [16a#	sf	[16a#X^z	ff	[16Ra^/	ff	[16Rcc\Jk [16Ree	.	[16F#^ [16A#	sf	[16b-^	sf	[16f#X^	sf	[16f#X^ [16a#X	sf	.	.	[16G-X^JJ [16g-X	sf	[16B-^JJ [16b-	sf	[16F#^JJ [16A#	sf	[16F#^JJ	sf	[16f#^JJ [16a#	sf	16G-^JJ	sf	16f#^JJ 16a#	sf	.	.
=9	=9	=9	=9	=9	=9	=9	=9	=9	=9	=9	=9	=9	=9	=9	=9	=9	=9	=9	=9	=9	=9	=9	=9	=9	=9	=9	=9	=9	=9	=9	=9	=9	=9	=9	=9	=9	=9	=9	=9	=9	=9	=9	=9	=9	=9	=9	=9	=9	=9	=9
16%3r	.	16%3r	.	16%3r	.	16%3r	.	16%3r	.	16%3r	.	16%3r	.	16%3r	.	16%3r	8f#] 8a#]	.	8.a#X]	.	8.Ra/]	.	8Rcc\L] 8Ree]	.	8.F#] 8.A#]	.	8.b-]	.	8.f#X]	.	8.f#X] 8.a#X]	.	16%3r	.	8.G-X] 8.g-X]	.	8.B-] 8.b-]	.	8.F#] 8.A#]	.	8.F#]	.	8.f#] 8.a#]	.	16%3r	.	16%3r	.	16%3r	.
.	.	.	.	.	.	.	.	.	.	.	.	.	.	.	.	.	16r	.	.	.	.	.	[16Rcc\Jk [16Ree	.	.	.	.	.	.	.	.	.	.	.	.	.	.	.	.	.	.	.	.	.	.	.	.	.	.	.
=	=	=	=	=	=	=	=	=	=	=	=	=	=	=	=	=	=	=	=	=	=	=	=	=	=	=	=	=	=	=	=	=	=	=	=	=	=	=	=	=	=	=	=	=	=	=	=	=	=	=
*-	*-	*-	*-	*-	*-	*-	*-	*-	*-	*-	*-	*-	*-	*-	*-	*-	*-	*-	*-	*-	*-	*-	*-	*-	*-	*-	*-	*-	*-	*-	*-	*-	*-	*-	*-	*-	*-	*-	*-	*-	*-	*-	*-	*-	*-	*-	*-	*-	*-	*-
!!!system-decoration: [(s1,s2,s3,s4,s5,s6)][([(s7,s8)]s9[(s10,s11)]s12,s13)][([(s14,s15)]s16)][({(s17,s18)})][([(s19,s20)][(s21,s22)][(s23,s24)][(s25,s26)])]
!!!RDF**kern: < = below
!!!CDT: 1908/12/10-1992/04/27
!!!CBL: Avignon, France
!!!CDL: Paris, France
!!!CNT: French
!!!OMD:
!!!AGN: Orchestral; Concerto
!!!MCN: Bernstein, Leonard
!!!MDT: 1949/12/02
!!!MGN: Boston Symphony Orchestra
!!!MLC: Boston, Massachusetts, United States of America
!!!MPD: 1949
!!!MPN: Loriod, Yvonne; Martenot, Ginette
!!!ODT: 1948 (rev. 1990)
!!!PDT: 1953
!!!excerpt-start-measure: 1
!!!excerpt-end-measure: 9
!!!excerpt-start-time: 0:00
!!!excerpt-end-time: 0:05
!!!EEV: 2020/01/27
!!!Suter_Work_ID: Mes-22
!!!Suter_Example_Number: 774
!!!Suter_Example_ID: Mes-22/364/1-9
!!!Premiere_Location: Boston,United States
!!!Other_Tsigs: none
!!!Full_Unit_Duration: 7:26
!!!First_Publication_Year: 1953
!!!First_Public_Performance_Year: 1949
!!!Example_Total_Measures: 9
!!!Example_Timestamp_Duration: 5
!!!Example_Start_Tsig_Type: simple triple
!!!Example_Start_Tsig_Mean_Beat_Rate: 348
!!!Example_Start_Tsig_Beat_Rate: 348
!!!Example_Start_Tsig_Beat: sixteenth
!!!Example_Start_Tsig: 3/16
!!!Example_Start_Timestamp: 0:00
!!!Example_Start_Tempo_Expression: Modéré, presque vif, avec une grande joie
!!!Example_Start_Notated_Beat_Rate: 116
!!!Example_Start_Notated_Beat: dotted-eighth
!!!Example_Start_Measure: 1
!!!Example_Metadata_Validated: Y
!!!Example_End_Timestamp: 0:05
!!!Example_End_Measure: 9
!!!Example_Dataset: T
!!!Editorial_Comments:
!!!Death_Place: Paris,France
!!!Death_Date: 27-Apr-1992
!!!Changing_Tsig: no
!!!Birth_Place: Avignon,France
!!!Birth_Date: 10-Dec-1908
!!!Audio_Example_Quarter_Note_Tempo:
!!!Audio_Example_Duration:
!!!ONB: Converted from MusicXML on 2020/01/27
